apps/ui-icons/svgs/logout.svg

<svg viewBox="0 0 24 24" width="24" height="24"  fill="none" xmlns="http://www.w3.org/2000/svg">
<path d="M18.5858 10.7929L10 10.7929C9.44772 10.7929 9 11.2406 9 11.7929C9 12.3452 9.44772 12.7929 10 12.7929L18.5858 12.7929L17.2929 14.0858C16.9024 14.4763 16.9024 15.1095 17.2929 15.5C17.6834 15.8905 18.3166 15.8905 18.7071 15.5L21.7071 12.5C22.0976 12.1095 22.0976 11.4763 21.7071 11.0858L18.7071 8.08579C18.3166 7.69526 17.6834 7.69526 17.2929 8.08579C16.9024 8.47631 16.9024 9.10948 17.2929 9.5L18.5858 10.7929Z" fill="#171D26"/>
<path d="M15 6C15 4.34315 13.6569 3 12 3L7 3C5.34315 3 4 4.34315 4 6L4 18C4 19.6569 5.34315 21 7 21H12C13.6569 21 15 19.6569 15 18V17C15 16.4477 14.5523 16 14 16C13.4477 16 13 16.4477 13 17V18C13 18.5523 12.5523 19 12 19H7C6.44772 19 6 18.5523 6 18L6 6C6 5.44772 6.44772 5 7 5L12 5C12.5523 5 13 5.44772 13 6V7C13 7.55228 13.4477 8 14 8C14.5523 8 15 7.55228 15 7V6Z" fill="#171D26"/>
</svg>

<svg xmlns="http://www.w3.org/2000/svg" width="24" height="24" fill="none" viewBox="0 0 24 24">
  <path fill="#171D26" d="M18.586 10.793H10a1 1 0 1 0 0 2h8.586l-1.293 1.293a1 1 0 0 0 1.414 1.414l3-3a1 1 0 0 0 0-1.414l-3-3A1 1 0 1 0 17.293 9.5l1.293 1.293Z"/>
  <path fill="#171D26" d="M15 6a3 3 0 0 0-3-3H7a3 3 0 0 0-3 3v12a3 3 0 0 0 3 3h5a3 3 0 0 0 3-3v-1a1 1 0 1 0-2 0v1a1 1 0 0 1-1 1H7a1 1 0 0 1-1-1V6a1 1 0 0 1 1-1h5a1 1 0 0 1 1 1v1a1 1 0 1 0 2 0V6Z"/>
</svg>
